assets/icon-text.svg

<svg width="26" height="18" viewBox="0 0 26 18" xmlns="http://www.w3.org/2000/svg"><path d="M0 0v2h26V0H0zm0 4v2h18V4H0zm0 4v2h26V8H0zm0 4v2h18v-2H0zm0 4v2h26v-2H0z" fill="#89a"/></svg>

<?xml version="1.0" encoding="UTF-8"?>
<svg width="26px" height="18px" viewBox="0 0 26 18" version="1.1" xmlns="http://www.w3.org/2000/svg" xmlns:xlink="http://www.w3.org/1999/xlink">
    <title>align-left-solid</title>
    <g id="Page-1" stroke="none" stroke-width="1" fill="none" fill-rule="evenodd">
        <g id="Main" transform="translate(-368.000000, -568.000000)" fill="#A9ABB0" fill-rule="nonzero">
            <g id="align-left-solid" transform="translate(368.000000, 568.000000)">
                <path d="M0,0 L0,2 L26,2 L26,0 L0,0 Z M0,4 L0,6 L18,6 L18,4 L0,4 Z M0,8 L0,10 L26,10 L26,8 L0,8 Z M0,12 L0,14 L18,14 L18,12 L0,12 Z M0,16 L0,18 L26,18 L26,16 L0,16 Z" id="Shape"></path>
            </g>
        </g>
    </g>
</svg>
